X:231
T:23. THE OYSTER DANCE (32 bar jigs)
T:Oyster girl
R:Jig
O:Ireland
M:6/8
K:G
P:A
d/2c/2|\
ded B2G|A2F D2E/2F/2|GFG BGB|d2c A3|\
ded Bdg|f2e c2e|d2B cBA|(G3 G2) ::
P:B
d|\
Bcd Bcd|e2c edc|ABc ABc|d2B dcB|\
ded Bdg|f2e c2e|d2B cBA|(G3 G2):|
